packages/foundations/assets/icons/functional/images/audio & video/volume_up_20.svg

<svg width="20" height="20" viewBox="0 0 20 20" fill="none" xmlns="http://www.w3.org/2000/svg">
<g clip-path="url(#clip0_184_440)">
<path fill-rule="evenodd" clip-rule="evenodd" d="M9 4.00001C9.563 4.00001 10 4.46901 10 5.00001V15C10 15.563 9.562 16 9 16C8.812 16 8.625 15.937 8.469 15.844L5.719 14H5C3.344 14 2 12.656 2 11.031V9.03101C2 7.37501 3.344 6.00001 5 6.00001H5.719L8.469 4.18701C8.61954 4.06603 8.80687 4.00006 9 4.00001ZM8 6.87501L6.562 7.84401C6.39252 7.94657 6.19809 8.00053 6 8.00001H5C4.437 8.00001 4 8.46901 4 9.00001V11C4 11.563 4.438 12 5 12H6C6.219 12 6.406 12.063 6.563 12.188L8 13.124V6.87501ZM12 12.969C13 12.969 14 11.469 14 9.96901C14 8.46901 13 7.00001 12 7.00001C11.5 7.00001 11 7.46901 11 8.00001C11 8.96901 12 8.96901 12 9.96901C12 10.969 11 10.969 11 11.969C11 12.469 11.5 12.969 12 12.969ZM14 17C14.25 17 14.469 16.906 14.656 16.75C15.6626 15.9147 16.481 14.8757 17.0574 13.7015C17.6337 12.5272 17.955 11.2443 18 9.93701C18 7.68701 16.781 5.28101 14.687 3.28101C14.5043 3.09997 14.2572 2.99889 14 3.00001C13.469 3.00001 13 3.46901 13 4.00001C13 4.28101 13.125 4.56301 13.313 4.75001C15 6.31301 16 8.28101 16 9.93801C15.9526 10.9598 15.6918 11.9603 15.2343 12.8752C14.7769 13.7901 14.133 14.599 13.344 15.25C13.2365 15.3433 13.1502 15.4584 13.0909 15.5878C13.0315 15.7171 13.0005 15.8577 13 16C13 16.563 13.469 17 14 17Z" fill="#1A1C1F"/>
</g>
<defs>
<clipPath id="clip0_184_440">
<rect width="20" height="20" fill="white"/>
</clipPath>
</defs>
</svg>

<svg xmlns="http://www.w3.org/2000/svg" width="20" height="20" fill="none"><g clip-path="url(#a)"><path fill="#1A1C1F" fill-rule="evenodd" d="M9 4c.563 0 1 .469 1 1v10c0 .563-.438 1-1 1-.188 0-.375-.063-.531-.156L5.719 14H5c-1.656 0-3-1.344-3-2.969v-2C2 7.375 3.344 6 5 6h.719l2.75-1.813A.85.85 0 0 1 9 4M8 6.875l-1.438.969A1.1 1.1 0 0 1 6 8H5c-.563 0-1 .469-1 1v2c0 .563.438 1 1 1h1q.328 0 .563.188L8 13.124zm4 6.094c1 0 2-1.5 2-3S13 7 12 7c-.5 0-1 .469-1 1 0 .969 1 .969 1 1.969s-1 1-1 2c0 .5.5 1 1 1M14 17c.25 0 .469-.094.656-.25A9.27 9.27 0 0 0 18 9.937c0-2.25-1.219-4.656-3.313-6.656A.97.97 0 0 0 14 3c-.531 0-1 .469-1 1 0 .281.125.563.313.75C15 6.313 16 8.281 16 9.938a7.33 7.33 0 0 1-2.656 5.312A1 1 0 0 0 13 16c0 .563.469 1 1 1" clip-rule="evenodd"/></g><defs><clipPath id="a"><path fill="#fff" d="M0 0h20v20H0z"/></clipPath></defs></svg>
